X: 27
T:Chelmsford Assembly
M:6/8
L:1/8
K:G
GBd cBA|G2 bg2 dZ| Bdg gdB |cAG FDF|GBd cBA|G2 bg2 dZ|efg Ee^c|d3 D3:|
|: de=f fed|G2 =f e2 c|efg ge^c|A2 g f2 d|b2 g dBd|a2 f dBd|gec Aaf|g3 G3:|

